X:3712
L:1/4
M:6/4
K:G
 d3/2 c/ B c3/2 B/ A | d d d d2 B/c/ | d3/2 c/ B c3/2 B/ A | B G G G3 || A A A A3 | c c c c3 | 
 g g g g2 g | f2 d d3/2 e/ f | g3/2 f/ e f3/2 e/ d | e3/2 d/ c d3/2 c/ B B A d2 c | B G G G3 ||

